X:49.4
T:Suite Plinn: Ton doubl 1
R:Breton
S:from Anna Pack, Dec 2022
L:1/8
M:4/4
G:sax
P:soprano: 6+x (A1B1 slow FW, then [K]+DK)
K:Fmaj
|:GE FD DD CG|GE FE D2D2:|
|:D>E FG AB A2|F/2G/2A BA GF EG|GE FD DD CG|GE FE D2D2:|

